brandFactory_export/2.Regular/Data virus_2Regular.svg

<?xml version="1.0" encoding="UTF-8"?>
<svg width="24px" height="24px" viewBox="0 0 24 24" version="1.1" xmlns="http://www.w3.org/2000/svg" xmlns:xlink="http://www.w3.org/1999/xlink">
    <title>2.Regular/Data virus_2Regular</title>
    <g id="Symbols" stroke="none" stroke-width="1" fill="none" fill-rule="evenodd">
        <g id="2.Regular/Data-virus_2Regular" fill="#5CB615" fill-rule="nonzero">
            <path d="M7.60672269,17.5159664 C9.08571429,17.5159664 9.49243697,16.9714286 9.49243697,14.9848739 C9.49243697,13.7378151 9.31428571,13.0722689 8.89411765,12.7563025 C8.62184874,12.5512605 8.20168067,12.4504202 7.60672269,12.4504202 C7.00840336,12.4504202 6.58487395,12.5512605 6.31260504,12.7596639 C5.89579832,13.0789916 5.7210084,13.7411765 5.7210084,14.9815126 C5.7210084,16.9747899 6.12436975,17.5159664 7.60672269,17.5159664 L7.60672269,17.5159664 Z M7.61008403,10.9445378 C6.34285714,10.9445378 6.34285714,11.2 6.34285714,11.5596639 C6.34285714,11.5697479 6.34285714,11.5731092 6.34621849,11.5798319 C6.70252101,11.4588235 7.11596639,11.394958 7.60672269,11.394958 C8.10084034,11.394958 8.51428571,11.4621849 8.87394958,11.5831933 L8.87394958,11.5596639 C8.87394958,11.2 8.87394958,10.9445378 7.61008403,10.9445378 L7.61008403,10.9445378 Z M11.1663866,14.087395 C11.4588235,14.087395 11.697479,14.3260504 11.697479,14.6184874 L11.697479,15.3781513 C11.697479,15.6705882 11.4588235,15.9092437 11.1663866,15.9092437 C10.8739496,15.9092437 10.6352941,15.6739496 10.6352941,15.3781513 L10.6352941,15.1495798 L10.5478992,15.1495798 C10.5411765,15.697479 10.4907563,16.2218487 10.3630252,16.6957983 L11.0689076,16.9109244 C11.3042017,16.9815126 11.4588235,17.2033613 11.4453782,17.4453782 L11.3848739,18.5882353 C11.3680672,18.8705882 11.1361345,19.0890756 10.8537815,19.0890756 L10.8268908,19.0890756 C10.5344538,19.0722689 10.3092437,18.8235294 10.3260504,18.5310924 L10.3630252,17.8016807 L9.89915966,17.6605042 C9.46890756,18.2151261 8.7697479,18.5781513 7.60336134,18.5781513 C6.43361345,18.5781513 5.73445378,18.2151261 5.30420168,17.6571429 L4.82352941,17.8016807 L4.8605042,18.5310924 C4.87731092,18.8235294 4.65210084,19.0722689 4.35966387,19.0890756 L4.32941176,19.0890756 C4.04705882,19.0890756 3.81512605,18.8705882 3.79831933,18.5882353 L3.73781513,17.4453782 C3.72436975,17.2033613 3.8789916,16.9815126 4.11428571,16.9109244 L4.84033613,16.692437 C4.71596639,16.2184874 4.66554622,15.6941176 4.65882353,15.1529412 L4.57142857,15.1529412 L4.57142857,15.3815126 C4.57142857,15.6739496 4.33277311,15.912605 4.04033613,15.912605 C3.74789916,15.912605 3.5092437,15.6773109 3.5092437,15.3815126 L3.5092437,14.6218487 C3.5092437,14.3294118 3.74789916,14.0907563 4.04033613,14.0907563 L4.68907563,14.0907563 C4.72941176,13.6504202 4.81680672,13.2235294 4.97815126,12.8403361 L4.11428571,12.5781513 C3.8789916,12.507563 3.72436975,12.2857143 3.73781513,12.0436975 L3.79831933,10.897479 C3.81512605,10.605042 4.0605042,10.3831933 4.35630252,10.3966387 C4.6487395,10.4134454 4.87394958,10.6621849 4.85714286,10.9546218 L4.82016807,11.6840336 L5.29747899,11.8285714 C5.28739496,11.7411765 5.27731092,11.6537815 5.27731092,11.5596639 C5.27731092,9.88571429 6.90756303,9.88571429 7.60672269,9.88571429 C8.30588235,9.88571429 9.93613445,9.88571429 9.93613445,11.5596639 C9.93613445,11.6504202 9.92605042,11.7344538 9.91596639,11.8184874 L10.3630252,11.6840336 L10.3260504,10.9546218 C10.3092437,10.6621849 10.5344538,10.4134454 10.8268908,10.3966387 C11.1226891,10.3831933 11.3714286,10.605042 11.3848739,10.897479 L11.4453782,12.0436975 C11.4588235,12.2857143 11.3042017,12.507563 11.0689076,12.5781513 L10.2218487,12.8336134 C10.3865546,13.2168067 10.4705882,13.6504202 10.5142857,14.0907563 L11.1663866,14.0907563 L11.1663866,14.087395 Z M7.57647059,13.2403361 C7.86890756,13.2403361 8.10756303,13.4756303 8.10756303,13.7714286 L8.10756303,16.6151261 C8.10756303,16.907563 7.86890756,17.1462185 7.57647059,17.1462185 C7.28403361,17.1462185 7.04537815,16.9109244 7.04537815,16.6151261 L7.04537815,13.7714286 C7.04201681,13.4789916 7.28067227,13.2403361 7.57647059,13.2403361 Z M20.2117647,20.3966387 C21.1058824,20.1277311 22.1747899,19.6537815 22.1747899,18.9277311 L22.1747899,15.8184874 C21.7344538,16.0840336 21.2201681,16.312605 20.6420168,16.487395 C19.2840336,16.8941176 17.5058824,17.1193277 15.6403361,17.1193277 C15.3781513,17.1193277 15.1260504,17.102521 14.8705882,17.0957983 C14.8537815,17.2 14.8403361,17.307563 14.8235294,17.405042 C14.6151261,18.5983193 13.6403361,19.7411765 12.4840336,20.7159664 C13.4420168,20.8773109 14.507563,20.9680672 15.6235294,20.9680672 C17.3478992,20.9680672 18.9781513,20.7663866 20.2117647,20.3966387 Z M7.60672269,22.1310924 C9.35798319,21.2571429 13.0655462,19.0487395 13.394958,17.1563025 C13.4352941,16.9243697 13.4722689,16.6521008 13.502521,16.3630252 C13.502521,16.3428571 13.492437,16.3260504 13.4957983,16.3058824 C13.4991597,16.2789916 13.512605,16.2588235 13.5159664,16.2319328 C13.6739496,14.6957983 13.7344538,12.5478992 13.7546218,11.0756303 C13.7478992,11.0319328 13.7310924,10.9882353 13.7344538,10.9411765 C13.7378151,10.907563 13.7512605,10.8806723 13.7579832,10.8504202 C13.7613445,10.6218487 13.7613445,10.410084 13.7647059,10.2285714 L13.7613445,10.2285714 C12.3428571,10.2285714 11.4487395,9.63697479 10.6420168,9.10588235 C9.80504202,8.5512605 9.01176471,8.0302521 7.61008403,8.02689076 L7.60672269,8.02689076 C6.20840336,8.02689076 5.41512605,8.5512605 4.57478992,9.10252101 C3.76134454,9.64033613 2.85714286,10.2386555 1.46890756,10.2386555 L1.45546218,10.2386555 C1.46554622,11.8319328 1.52605042,15.4487395 1.82521008,17.1529412 C2.1210084,18.8638655 5.40168067,21.0420168 7.60672269,22.1310924 L7.60672269,22.1310924 Z M9.07563025,5.08571429 L9.07563025,6.76302521 C10.0672269,7.00840336 10.7865546,7.47226891 11.4386555,7.90252101 C12.3260504,8.4907563 13.0319328,8.95462185 14.3462185,8.74621849 C14.5579832,8.71596639 14.7798319,8.77310924 14.9411765,8.90756303 C15.102521,9.04537815 15.2067227,9.24033613 15.210084,9.45210084 C15.210084,9.50252101 15.210084,9.81512605 15.2067227,10.2789916 C15.3512605,10.2823529 15.492437,10.2890756 15.6369748,10.2890756 C17.3680672,10.2890756 18.994958,10.087395 20.2218487,9.71764706 C21.3512605,9.37815126 21.9596639,8.87731092 22.1714286,8.51428571 L22.1714286,5.10252101 C21.7512605,5.34789916 21.2436975,5.56302521 20.6352941,5.74453782 C19.2773109,6.1512605 17.502521,6.37647059 15.6336134,6.37647059 C13.7647059,6.37647059 11.989916,6.1512605 10.6319328,5.74453782 C10.0201681,5.55966387 9.50252101,5.33781513 9.07563025,5.08571429 Z M11.0386555,2.04705882 C10.0134454,2.35630252 9.37142857,2.75966387 9.16638655,3.19663866 C9.36134454,3.63697479 10.0134454,4.04705882 11.0521008,4.35966387 C12.2789916,4.72605042 13.9058824,4.93109244 15.6369748,4.93109244 C17.3680672,4.93109244 18.994958,4.72941176 20.2218487,4.36302521 C21.2436975,4.05714286 21.902521,3.65042017 22.1042017,3.21344538 C21.8588235,2.65882353 20.9781513,2.2789916 20.2117647,2.05042017 C18.9848739,1.68403361 17.3546218,1.4789916 15.6235294,1.4789916 C13.8957983,1.4789916 12.2655462,1.68067227 11.0386555,2.04705882 L11.0386555,2.04705882 Z M15.189916,11.7210084 C15.1663866,12.9176471 15.1193277,14.3865546 15.0184874,15.6537815 C15.2268908,15.6605042 15.4285714,15.6739496 15.6369748,15.6739496 C17.3680672,15.6739496 18.994958,15.4722689 20.2218487,15.102521 C21.3478992,14.7630252 21.9563025,14.2621849 22.1714286,13.902521 L22.1714286,10.4336134 C21.7310924,10.6991597 21.2168067,10.9277311 20.6386555,11.102521 C19.2806723,11.5092437 17.502521,11.7344538 15.6369748,11.7344538 C15.4857143,11.7344538 15.3411765,11.7277311 15.189916,11.7210084 L15.189916,11.7210084 Z M20.6285714,0.665546218 C22.6151261,1.2605042 23.6235294,2.22184874 23.6235294,3.51596639 L23.6235294,18.9277311 C23.6235294,20.2218487 22.6151261,21.1831933 20.6285714,21.7781513 C19.2638655,22.1848739 17.4857143,22.410084 15.6235294,22.410084 C13.8991597,22.410084 12.2655462,22.2117647 10.9478992,21.8588235 C9.53277311,22.8033613 8.20840336,23.4453782 7.91596639,23.5831933 C7.81848739,23.6302521 7.71428571,23.6504202 7.60672269,23.6504202 C7.50252101,23.6504202 7.39495798,23.6268908 7.29747899,23.5798319 C6.6487395,23.2739496 0.937815126,20.5042017 0.396638655,17.3983193 C-0.0134453782,15.0588235 -5.09174084e-05,9.67394958 -5.09174084e-05,9.44537815 C-5.09174084e-05,9.22352941 0.104201681,9.01512605 0.275630252,8.88067227 C0.450420168,8.74285714 0.678991597,8.69579832 0.894117647,8.74621849 C2.18487395,8.94789916 2.88403361,8.48403361 3.77142857,7.89579832 C4.70588235,7.27731092 5.76806723,6.57815126 7.60336134,6.57815126 L7.62689076,6.57815126 L7.62689076,3.5092437 C7.62689076,3.29747899 7.65714286,3.09243697 7.71428571,2.89411765 C8,1.90252101 8.97815126,1.14957983 10.6218487,0.655462185 C11.9798319,0.248739496 13.7579832,0.0235294118 15.6268908,0.0235294118 C17.492437,0.0336134454 19.2705882,0.258823529 20.6285714,0.665546218 Z" id="Data-virus_2Regular"></path>
        </g>
    </g>
</svg>

<svg width="24" height="24" viewBox="0 0 24 24" xmlns="http://www.w3.org/2000/svg"><path d="M7.607 17.516c1.479 0 1.885-.545 1.885-2.531 0-1.247-.178-1.913-.598-2.229-.272-.205-.692-.306-1.287-.306-.599 0-1.022.101-1.294.31-.417.319-.592.981-.592 2.222 0 1.993.403 2.534 1.886 2.534zm.003-6.571c-1.267 0-1.267.255-1.267.615 0 .01 0 .013.003.02.357-.121.77-.185 1.26-.185.495 0 .908.067 1.268.188v-.023c0-.36 0-.615-1.264-.615zm3.556 3.142c.293 0 .531.24.531.531v.76a.532.532 0 01-1.062 0v-.228h-.087c-.007.547-.057 1.072-.185 1.546l.706.215c.235.07.39.292.376.534l-.06 1.143a.531.531 0 01-.531.501h-.027a.53.53 0 01-.5-.558l.036-.73-.464-.14c-.43.554-1.13.917-2.296.917-1.17 0-1.869-.363-2.299-.92l-.48.144.037.73a.53.53 0 01-.501.557h-.03a.531.531 0 01-.532-.5l-.06-1.144a.528.528 0 01.376-.534l.726-.219c-.124-.474-.174-.998-.181-1.54H4.57v.23a.532.532 0 01-1.062 0v-.76c0-.293.239-.531.531-.531h.65c.04-.44.127-.867.288-1.25l-.864-.263a.528.528 0 01-.376-.534l.06-1.147a.53.53 0 011.06.058l-.038.729.477.145a2.297 2.297 0 01-.02-.27c0-1.673 1.63-1.673 2.33-1.673.699 0 2.33 0 2.33 1.674 0 .09-.01.174-.021.258l.447-.134-.037-.73a.53.53 0 111.059-.057l.06 1.147a.528.528 0 01-.376.534l-.847.256c.165.383.249.816.292 1.257h.652v-.004zm-3.59-.847a.53.53 0 01.532.531v2.844a.532.532 0 01-1.063 0v-2.844a.528.528 0 01.531-.53zm12.636 7.157c.894-.27 1.963-.743 1.963-1.47v-3.109c-.44.266-.955.495-1.533.67-1.358.406-3.136.631-5.002.631-.262 0-.514-.016-.77-.023-.016.104-.03.212-.046.309-.209 1.193-1.184 2.336-2.34 3.311.958.161 2.024.252 3.14.252 1.724 0 3.354-.202 4.588-.571zM7.607 22.13c1.751-.874 5.459-3.082 5.788-4.975.04-.232.077-.504.108-.793 0-.02-.01-.037-.007-.057.003-.027.017-.047.02-.074.158-1.536.218-3.684.239-5.156-.007-.044-.024-.088-.02-.135.003-.033.016-.06.023-.09.003-.23.003-.44.007-.622h-.004c-1.418 0-2.312-.592-3.119-1.123-.837-.555-1.63-1.076-3.032-1.08h-.003c-1.399 0-2.192.525-3.032 1.077-.814.537-1.718 1.136-3.106 1.136h-.014c.01 1.593.071 5.21.37 6.914.296 1.71 3.577 3.889 5.782 4.978zM9.076 5.086v1.677c.991.245 1.71.71 2.363 1.14.887.588 1.593 1.052 2.907.843a.768.768 0 01.595.162.738.738 0 01.27.544c0 .05 0 .363-.004.827.144.003.285.01.43.01 1.731 0 3.358-.202 4.585-.571 1.13-.34 1.738-.84 1.95-1.204V5.103c-.42.245-.928.46-1.537.642-1.358.406-3.132.631-5.001.631-1.87 0-3.644-.225-5.002-.631a7.102 7.102 0 01-1.556-.66zm1.963-3.039c-1.026.31-1.668.713-1.873 1.15.195.44.847.85 1.886 1.163 1.227.366 2.854.571 4.585.571 1.731 0 3.358-.202 4.585-.568 1.022-.306 1.68-.713 1.882-1.15-.245-.554-1.126-.934-1.892-1.163-1.227-.366-2.857-.571-4.588-.571-1.728 0-3.358.202-4.585.568zm4.15 9.674a69.648 69.648 0 01-.17 3.933c.208.007.41.02.618.02 1.731 0 3.358-.202 4.585-.571 1.126-.34 1.734-.84 1.95-1.2v-3.47c-.44.266-.955.495-1.533.67-1.358.406-3.136.631-5.002.631-.151 0-.296-.006-.447-.013zM20.63.666c1.986.595 2.995 1.556 2.995 2.85v15.412c0 1.294-1.009 2.255-2.995 2.85-1.365.407-3.143.632-5.005.632-1.725 0-3.358-.198-4.676-.551a25.345 25.345 0 01-3.032 1.724.717.717 0 01-.618-.003c-.65-.306-6.36-3.076-6.901-6.182C-.013 15.058 0 9.674 0 9.445a.72.72 0 01.894-.699c1.29.202 1.99-.262 2.877-.85.935-.619 1.997-1.318 3.832-1.318h.024V3.51c0-.212.03-.417.087-.615C8 1.903 8.978 1.15 10.622.655 11.98.25 13.758.024 15.627.024c1.865.01 3.644.235 5.002.642z" fill="#5CB615" fill-rule="nonzero"/></svg>
